StripePaymentSheet/StripePaymentSheet/Resources/StripePaymentSheet.xcassets/PaymentMethods/icon-pm-paypal.imageset/icon-pm-paypal-color.svg

<svg fill="none" height="16" viewBox="0 0 16 16" width="16" xmlns="http://www.w3.org/2000/svg" xmlns:xlink="http://www.w3.org/1999/xlink"><clipPath id="a"><path d="m1 0h13.4194v16h-13.4194z"/></clipPath><g clip-path="url(#a)"><path d="m12.8957 3.95717c-.0144.09239-.0309.18684-.0495.28387-.6385 3.27794-2.8227 4.41032-5.6124 4.41032h-1.42039c-.34116 0-.62864.24774-.68181.58426l-.72722 4.61208-.20594 1.3074c-.03458.2209.13574.4201.35871.4201h2.51923c.29832 0 .55174-.2167.59871-.5109l.02477-.128.47432-3.0101.03046-.1652c.04645-.2952.30038-.512.59871-.512h.37677c2.44078 0 4.35148-.9909 4.90998-3.85854.2332-1.19794.1125-2.19819-.5048-2.90168-.1869-.21213-.4186-.38813-.6896-.53161z" fill="#179bd7"/><path d="m12.2279 3.69083c-.0976-.02839-.1982-.05419-.3015-.07742-.1037-.02271-.21-.04284-.3195-.06039-.3829-.06193-.8025-.09135-1.2521-.09135h-3.79456c-.09342 0-.1822.02116-.26168.05935-.17497.08413-.30503.24981-.33652.45265l-.80722 5.11278-.02323.14916c.05316-.33652.34065-.58426.68181-.58426h1.42039c2.78971 0 4.97391-1.1329 5.61241-4.41032.0191-.09704.0351-.19149.0495-.28388-.1615-.08567-.3365-.15896-.5249-.22142-.0464-.01548-.0944-.03045-.1429-.0449z" fill="#222d65"/><path d="m5.96206 3.97368c.03148-.20284.16155-.36852.33651-.45213.08-.0382.16826-.05936.26168-.05936h3.79455c.4496 0 .8692.02942 1.2522.09136.1094.01755.2157.03768.3194.06039.1033.02322.2039.04903.3015.07741.0485.01446.0965.02942.1434.04439.1884.06245.3634.13626.525.22142.1899-1.21135-.0016-2.03613-.6566-2.78297-.722-.82219-2.0253-1.17419-3.69287-1.17419h-4.84129c-.34064 0-.63122.247742-.68387.584774l-2.01651 12.781926c-.039746.2529.15535.481.41032.481h2.9889l.75045-4.76125z" fill="#253b80"/></g></svg>

<svg width="16" height="16" viewBox="0 0 16 16" fill="none" xmlns="http://www.w3.org/2000/svg">
<g clip-path="url(#clip0_23_1470)">
<path d="M12.8957 3.95717C12.8813 4.04956 12.8648 4.14401 12.8462 4.24104C12.2077 7.51898 10.0235 8.65136 7.2338 8.65136H5.81341C5.47225 8.65136 5.18477 8.8991 5.1316 9.23562L4.40438 13.8477L4.19844 15.1551C4.16386 15.376 4.33418 15.5752 4.55715 15.5752H7.07638C7.3747 15.5752 7.62812 15.3585 7.67509 15.0643L7.69986 14.9363L8.17418 11.9262L8.20464 11.761C8.25109 11.4658 8.50502 11.249 8.80335 11.249H9.18012C11.6209 11.249 13.5316 10.2581 14.0901 7.39046C14.3233 6.19252 14.2026 5.19227 13.5853 4.48878C13.3984 4.27665 13.1667 4.10065 12.8957 3.95717Z" fill="#179BD7"/>
<path d="M12.2279 3.69083C12.1303 3.66244 12.0297 3.63664 11.9264 3.61341C11.8227 3.5907 11.7164 3.57057 11.6069 3.55302C11.224 3.49109 10.8044 3.46167 10.3548 3.46167H6.56024C6.46682 3.46167 6.37804 3.48283 6.29856 3.52102C6.12359 3.60515 5.99353 3.77083 5.96204 3.97367L5.15482 9.08645L5.13159 9.23561C5.18475 8.89909 5.47224 8.65135 5.8134 8.65135H7.23379C10.0235 8.65135 12.2077 7.51845 12.8462 4.24103C12.8653 4.14399 12.8813 4.04954 12.8957 3.95715C12.7342 3.87148 12.5592 3.79819 12.3708 3.73573C12.3244 3.72025 12.2764 3.70528 12.2279 3.69083Z" fill="#222D65"/>
<path d="M5.96206 3.97368C5.99354 3.77084 6.12361 3.60516 6.29857 3.52155C6.37857 3.48335 6.46683 3.46219 6.56025 3.46219H10.3548C10.8044 3.46219 11.224 3.49161 11.607 3.55355C11.7164 3.5711 11.8227 3.59123 11.9264 3.61394C12.0297 3.63716 12.1303 3.66297 12.2279 3.69135C12.2764 3.70581 12.3244 3.72077 12.3713 3.73574C12.5597 3.79819 12.7347 3.872 12.8963 3.95716C13.0862 2.74581 12.8947 1.92103 12.2397 1.17419C11.5177 0.352 10.2144 0 8.54683 0H3.70554C3.3649 0 3.07432 0.247742 3.02167 0.584774L1.00516 13.3667C0.965414 13.6196 1.16051 13.8477 1.41548 13.8477H4.40438L5.15483 9.08645L5.96206 3.97368Z" fill="#253B80"/>
</g>
<defs>
<clipPath id="clip0_23_1470">
<rect width="13.4194" height="16" fill="white" transform="translate(1)"/>
</clipPath>
</defs>
</svg>
